modules/shared-components/icons/twitter.svg

<?xml version="1.0" encoding="UTF-8"?>
<svg width="20px" height="15px" viewBox="0 0 20 15" version="1.1" xmlns="http://www.w3.org/2000/svg" xmlns:xlink="http://www.w3.org/1999/xlink">
    <!-- Generator: Sketch 52.6 (67491) - http://www.bohemiancoding.com/sketch -->
    <title>twitter</title>
    <desc>Created with Sketch.</desc>
    <defs>
        <path d="M20,2.75 C19.4328216,3.52204323 18.735784,4.18964284 17.94,4.723 L17.94,5.212 C17.9376467,6.24532569 17.7757389,7.27209123 17.46,8.256 C17.1257726,9.29650809 16.6333374,10.2793548 16,11.17 C15.3437793,12.1029319 14.5555539,12.9356213 13.66,13.642 C12.6781705,14.4009033 11.5716246,14.9829397 10.39,15.362 C9.07011693,15.7943539 7.6888574,16.0098169 6.3,16 C4.08358701,16.0227178 1.90378309,15.4341707 -2.67785794e-15,14.299 C0.332,14.332 0.666,14.348 1,14.346 C2.82684017,14.3713035 4.61269649,13.8039696 6.09,12.729 C5.23422201,12.7269099 4.39980839,12.4615734 3.7,11.969 C3.02444676,11.5173714 2.51520857,10.8571178 2.25,10.089 C2.505,10.125 2.762,10.144 3.02,10.145 C3.38393774,10.1445877 3.7465175,10.1006081 4.1,10.014 C3.19086414,9.85814869 2.3619769,9.3971463 1.75,8.707 C1.14267306,8.05048799 0.809875655,7.18628828 0.82,6.292 L0.82,6.245 C1.388,6.54 2.022,6.705 2.67,6.725 C2.11971701,6.3934366 1.65951164,5.93151405 1.33,5.38 C0.633359356,4.21723376 0.656613937,2.75994667 1.39,1.62 C2.4296523,2.80700066 3.70280644,3.76697249 5.13,4.44 C6.60425495,5.16301202 8.21010795,5.57876464 9.85,5.662 C9.78407956,5.37837315 9.75053194,5.08818621 9.75,4.797 C9.73885559,3.76916133 10.1771635,2.78771692 10.95,2.11 C11.7607324,1.37627188 12.8207408,0.979305196 13.914,1 C15.0059373,1.0101621 16.0526958,1.43730824 16.84,2.194 C17.7524436,2.02570943 18.6308933,1.70811605 19.44,1.254 C19.1257701,2.15241252 18.4825186,2.89822692 17.64,3.341 C18.4505293,3.25587411 19.2450124,3.0569167 20,2.75" id="path-1"></path>
    </defs>
    <g id="Page-1" stroke="none" stroke-width="1" fill="none" fill-rule="evenodd">
        <g id="twitter" transform="translate(0.000000, -1.000000)">
            <g id="a-link" fill="#63ACFC">
                <path d="M20,2.75 C19.4328216,3.52204323 18.735784,4.18964284 17.94,4.723 L17.94,5.212 C17.9376467,6.24532569 17.7757389,7.27209123 17.46,8.256 C17.1257726,9.29650809 16.6333374,10.2793548 16,11.17 C15.3437793,12.1029319 14.5555539,12.9356213 13.66,13.642 C12.6781705,14.4009033 11.5716246,14.9829397 10.39,15.362 C9.07011693,15.7943539 7.6888574,16.0098169 6.3,16 C4.08358701,16.0227178 1.90378309,15.4341707 -2.67785794e-15,14.299 C0.332,14.332 0.666,14.348 1,14.346 C2.82684017,14.3713035 4.61269649,13.8039696 6.09,12.729 C5.23422201,12.7269099 4.39980839,12.4615734 3.7,11.969 C3.02444676,11.5173714 2.51520857,10.8571178 2.25,10.089 C2.505,10.125 2.762,10.144 3.02,10.145 C3.38393774,10.1445877 3.7465175,10.1006081 4.1,10.014 C3.19086414,9.85814869 2.3619769,9.3971463 1.75,8.707 C1.14267306,8.05048799 0.809875655,7.18628828 0.82,6.292 L0.82,6.245 C1.388,6.54 2.022,6.705 2.67,6.725 C2.11971701,6.3934366 1.65951164,5.93151405 1.33,5.38 C0.633359356,4.21723376 0.656613937,2.75994667 1.39,1.62 C2.4296523,2.80700066 3.70280644,3.76697249 5.13,4.44 C6.60425495,5.16301202 8.21010795,5.57876464 9.85,5.662 C9.78407956,5.37837315 9.75053194,5.08818621 9.75,4.797 C9.73885559,3.76916133 10.1771635,2.78771692 10.95,2.11 C11.7607324,1.37627188 12.8207408,0.979305196 13.914,1 C15.0059373,1.0101621 16.0526958,1.43730824 16.84,2.194 C17.7524436,2.02570943 18.6308933,1.70811605 19.44,1.254 C19.1257701,2.15241252 18.4825186,2.89822692 17.64,3.341 C18.4505293,3.25587411 19.2450124,3.0569167 20,2.75" id="a"></path>
            </g>
            <g id="Clipped">
                <mask id="mask-2" fill="white">
                    <use xlink:href="#path-1"></use>
                </mask>
                <g id="a"></g>
                <g id="Group" mask="url(#mask-2)" fill="#FFFFFF">
                    <polygon id="Path" points="0 0 20 0 20 17 0 17"></polygon>
                </g>
            </g>
        </g>
    </g>
</svg>

<svg width="20" height="15" xmlns="http://www.w3.org/2000/svg" xmlns:xlink="http://www.w3.org/1999/xlink"><defs><path d="M20 2.75a8.268 8.268 0 0 1-2.06 1.973v.489a10.037 10.037 0 0 1-.48 3.044A10.647 10.647 0 0 1 16 11.17a11.781 11.781 0 0 1-2.34 2.472 10.683 10.683 0 0 1-3.27 1.72c-1.32.432-2.701.648-4.09.638A12.06 12.06 0 0 1 0 14.299c.332.033.666.049 1 .047a8.452 8.452 0 0 0 5.09-1.617 4.17 4.17 0 0 1-2.39-.76 3.723 3.723 0 0 1-1.45-1.88c.255.036.512.055.77.056a4.56 4.56 0 0 0 1.08-.131 4.057 4.057 0 0 1-2.35-1.307 3.498 3.498 0 0 1-.93-2.415v-.047c.568.295 1.202.46 1.85.48A3.914 3.914 0 0 1 1.33 5.38a3.564 3.564 0 0 1 .06-3.76 11.482 11.482 0 0 0 3.74 2.82 12.114 12.114 0 0 0 4.72 1.222 3.852 3.852 0 0 1-.1-.865 3.523 3.523 0 0 1 1.2-2.687A4.296 4.296 0 0 1 13.914 1a4.28 4.28 0 0 1 2.926 1.194 8.44 8.44 0 0 0 2.6-.94 3.76 3.76 0 0 1-1.8 2.087A8.672 8.672 0 0 0 20 2.75" id="a"/></defs><g fill="none" fill-rule="evenodd"><path d="M20 1.75a8.268 8.268 0 0 1-2.06 1.973v.489a10.037 10.037 0 0 1-.48 3.044A10.647 10.647 0 0 1 16 10.17a11.781 11.781 0 0 1-2.34 2.472 10.683 10.683 0 0 1-3.27 1.72c-1.32.432-2.701.648-4.09.638A12.06 12.06 0 0 1 0 13.299c.332.033.666.049 1 .047a8.452 8.452 0 0 0 5.09-1.617 4.17 4.17 0 0 1-2.39-.76 3.723 3.723 0 0 1-1.45-1.88c.255.036.512.055.77.056a4.56 4.56 0 0 0 1.08-.131 4.057 4.057 0 0 1-2.35-1.307 3.498 3.498 0 0 1-.93-2.415v-.047c.568.295 1.202.46 1.85.48A3.914 3.914 0 0 1 1.33 4.38 3.564 3.564 0 0 1 1.39.62a11.482 11.482 0 0 0 3.74 2.82 12.114 12.114 0 0 0 4.72 1.222 3.852 3.852 0 0 1-.1-.865 3.523 3.523 0 0 1 1.2-2.687A4.296 4.296 0 0 1 13.914 0a4.28 4.28 0 0 1 2.926 1.194 8.44 8.44 0 0 0 2.6-.94 3.76 3.76 0 0 1-1.8 2.087A8.672 8.672 0 0 0 20 1.75" fill="#63ACFC"/><g transform="translate(0 -1)"><mask id="b" fill="#fff"><use xlink:href="#a"/></mask><g mask="url(#b)" fill="#FFF"><path d="M0 0h20v17H0z"/></g></g></g></svg>
